X:1
T:Sacro-Monte
T:Sacro-Monte
T:No 5 from Danzas Gitanas Series 1, Op. 55
T:Joaquín Turina (1882-1949) 
C:Joaquin Turina (1882-1949)
%%score { ( 1 3 ) | 2 }
L:1/8
Q:1/4=120
M:4/4
K:C
V:1 treble nm="Grand Piano" snm="Pno."
V:3 treble 
V:2 bass 
V:1
!f!"^Allegro moderato" [DE] z [DE] z | %1
 !>![A,^CE]3!p! [A,CE]/[A,CE]/ z [_B,DE]/[B,DE]/ z [B,DE]/[B,DE]/ | %2
 z [A,^CE]/[A,CE]/ z [A,CE]/[A,CE]/ z [_B,DE]/[B,DE]/ z [B,DE]/[B,DE]/ | %3
 z [A,^CE]/[A,CE]/ z [A,CE]/[A,CE]/ z!sfz! [DFA]/[DFA]/ z [DFA]/[DFA]/ | %4
 z [CEG]/[CEG]/ z"_dim." [CEG]/[CEG]/ z [_B,DF]/[B,DF]/ z [B,DF]/[B,DF]/ | %5
!p! z [A,^CE]/[A,CE]/ z [A,CE]/[A,CE]/ z [_B,DE]/[B,DE]/ z [B,DE]/[B,DE]/ | %6
!pp! z [A,^CE]/[A,CE]/ z [A,CE]/[A,CE]/ z [_B,DE]/[B,DE]/ z [B,DE]/[B,DE]/ | %7
 z!f! (a/f/ g/e/f/d/ e) .[DE].[DE].[DE] | .[DE] (a/f/ g/e/f/d/ e) .[DE].[DE].[DE] | %9
 .[DE] (A/F/ G/E/F/D/ E/^C/D/F/ E/=C/D/_B,/ | %10
 C/D/C/_B,/"_dim."[I:staff +1] A,/_B,/A,/G,/ F,/G,/F,/E,/ D,/E,/F,/G,/) | %11
!p![I:staff -1] z [A,^CE]/[A,CE]/ z [A,CE]/[A,CE]/ z [_B,DE]/[B,DE]/ z [B,DE]/[B,DE]/ | %12
 z!sfz! (d/e/ ^f/g/a/_b/ c') .[C^FA].[_DG_B].[_EAc] | %13
 z (d/e/ ^f/g/a/_b/ c') .[C^FA].[_EAc].[_DG_B] | %14
 z!p! d/=e/ ^f/g/a/_b/ [fac'][fac']/[fad']/ [fac'][fb] | %15
 [^fa][f^g] [fa][f_b] [fac'][fac']/[fad']/ [fac'][fb] | [^fa][f^g] [fa][f_b] [fac'] z z2 | %17
 z!sfz! !>!D/!>!D/ !>!G6 | z!sfz! !>!D/!>!D/ !>!G6 | d/_e/d/=B/ G/B/G/D/ F/G/F/D/ _B,/_A,/B,/A,/ | %20
 z!sfz! !>!D/!>!D/ !>!G6 | z!sfz! !>!D/!>!D/ !>!G6 | %22
 f/g/f/g/!<(! f/g/f/_e/ d/e/d/e/!<)! d/c/_B/_A/ |!sfz! [C=EG]3/2 z/ [_DFG]3/2 z/ [CEG]3/2 z/ z2 | %24
 [C=EG]3/2 z/ [_DFG]3/2 z/ [CEG]3/2 z/ z2 ||[M:2/4]!f! [DE] z [DE] z || %26
[M:4/4] !>![A,^CE]3!p! [A,CE]/[A,CE]/ z [_B,DE]/[B,DE]/ z [B,DE]/[B,DE]/ | %27
 z [A,^CE]/[A,CE]/ z [A,CE]/[A,CE]/ z [_B,DE]/[B,DE]/ z [B,DE]/[B,DE]/ | %28
 z [A,^CE]/[A,CE]/ z [A,CE]/[A,CE]/ z!sfz! [DFA]/[DFA]/ z [DFA]/[DFA]/ | %29
 z [CEG]/[CEG]/ z"_dim." [CEG]/[CEG]/ z [_B,DF]/[B,DF]/ z [B,DF]/[B,DF]/ | %30
!p! z [A,^CE]/[A,CE]/ z [A,CE]/[A,CE]/ z [_B,DE]/[B,DE]/ z [B,DE]/[B,DE]/ | %31
!pp! z [A,^CE]/[A,CE]/ z [A,CE]/[A,CE]/ z [_B,DE]/[B,DE]/ z [B,DE]/[B,DE]/ | %32
 z!f! (_a/f/ g/=e/f/_d/ e) .[=DE].[DE].[DE] | .[DE] (_a/f/ g/=e/f/_d/ e) .[=DE].[DE].[DE] | %34
 .[DE] (_A/F/ G/E/F/D/ E/^C/D/F/ E/=C/D/_B,/ | %35
 C/D/C/_B,/[I:staff +1] A,/_B,/A,/G,/ F,/G,/F,/E,/ D,/E,/F,/G,/) || %36
!mf![Q:1/4=144]"^Più vivo"[I:staff -1] (3z [A,^CE][A,CE] (3z [A,CE][A,CE] (3z [_B,DE][B,DE] (3z [B,DE][B,DE] | %37
 (3z [A,^CE][A,CE] (3z [A,CE][A,CE] (3z [_B,DE][B,DE] (3z [B,DE][B,DE] | %38
 (3z [A,^CE][A,CE] (3z [A,CE][A,CE] (3z [DFA][DFA] (3z [DFA][DFA] | %39
 (3z [CEG][CEG] (3z [CEG][CEG] (3z [_B,DF][B,DF] (3z [B,DF][B,DF] | %40
!f! z/ [A^ce]/E/[Ace]/ z/ [Ace]/E/[Ace]/ z/ [_Bde]/F/[Bde]/ [=cde]/G/[cde]/ z/ | %41
 z/ [A^ce]/E/[Ace]/ z/ [Ace]/E/[Ace]/ z/ [_Bde]/F/[Bde]/ [=cde]/G/[cde]/ z/ | %42
 z/ [cea]/A/[cea]/ z/ [cea]/A/[cea]/"_cresc." z/ [_Bdg]/G/[Bdg]/ z/ [_Acf]/F/[Acf]/ | %43
!ff! z/ [A^ce]/E/[Ace]/ z/ [Ace]/E/[Ace]/ z/ [a=c'f']/f/[ac'f']/ z/ [_bd'g']/g/[bd'g']/ | %44
 z/ [A^ce]/E/[Ace]/ z/ [Ace]/E/[Ace]/ z/ [a=c'f']/f/[ac'f']/ z/ [_bd'g']/g/[bd'g']/ | %45
 z [ae'a'] [gd'g'][fc'f'] [dad'][cgc'] [Aea][Gdg] | %46
[K:bass]!<(! G,, [C,D,]3[K:treble] G, [CDE]3!<)! |!fff! !>![A^cea]2 z2 z4 |] %48
V:2
 [_B,C] z [B,C] z | !>![A,,E,]3 z A,,E, =CE, | A,,E, _B,E, A,,E, =CE, | A,,E, _B,E, A,,E, EE, | %4
 A,,E, DE, A,,E, CE, | A,,E, _B,E, A,,E, =CE, | A,,E, _B,E, A,,E, =CE, | %7
 z (A/F/ G/E/F/D/ E) .C._B,.C | .A, (A/F/ G/E/F/D/ E) .C._B,.C | .A, z z2 z4 | x2"_dim." x6 | %11
 A,,E, _B,E, A,,E, =CE, | %12
 A,,[I:staff -1] (D/E/ ^F/G/A/_B/ c)[I:staff +1] .[D,,D,].[_E,,_E,].[=F,,=F,] | %13
!8vb(! !>!D,,,!8vb)![I:staff -1] (D/E/ ^F/G/A/_B/ c)[I:staff +1] .[D,,D,].[=F,,=F,].[_E,,_E,] | %14
!8vb(! !>!D,,,!8vb)! z z2[K:treble] [cd][cd]/[cd]/ [cd][cd] | %15
 [cd][cd] [cd][cd] [cd][cd]/[cd]/ [cd][cd] | %16
 [cd][cd] [cd][cd] [cd][K:bass]!8vb(! D,,A,,,D,,,!8vb)! | G,,D, =B,D, G,,D, _A,D, | %18
 G,,D, =B,D, G,,D, _A,D, | G,,D, B,D, G,,D, CD, | G,,D, =B,D, G,,D, _A,D, | %21
 G,,D, =B,D, G,,D, _A,D, |[K:treble] [_Acd]3/2 z/ [G_Bc]3/2 z/ [FAB]3/2 z/ [_EGA]3/2 z/ | %23
[K:bass] [C,G,]3/2 z/ [_B,,F,]3/2 z/ [C,G,]!8vb(! _D,,_A,,,_D,,,!8vb)! | %24
 [C,G,]3/2 z/ [_B,,F,]3/2 z/ [C,G,]!8vb(! _D,,_A,,,_D,,,!8vb)! ||[M:2/4] [_B,C] z [B,C] z || %26
[M:4/4] !>![A,,E,]3 z A,,E, =CE, | A,,E, _B,E, A,,E, =CE, | A,,E, _B,E, A,,E, EE, | %29
 A,,E, DE, A,,E, CE, | A,,E, _B,E, A,,E, =CE, | A,,E, _B,E, A,,E, =CE, | %32
 z (_A/F/ G/=E/F/_D/ E) .C._B,.C | .A, (_A/F/ G/=E/F/_D/ E) .C._B,.C | .A, z z2 z4 | %35
 [D,,,D,,] z [E,,,E,,] z [F,,,F,,] z [G,,,G,,] z || A,,E, [A,=C] z [_B,C] z [B,C] z | %37
 A,,E, [A,=C] z [_B,C] z [B,C] z | A,,E, [A,=C] z [EF] z [EF] z | [DE] z [DE] z [CD] z [CD] z | %40
 A,,E, A,^C [DF] z [EG] z | A,,E, A,^C [DF] z [EG] z | F,C DF C,G, D,[_A,_B,] | %43
 =A,,E, A,^C[K:treble] [DFA=c]2 [EG_Bd]2 |[K:bass] A,,E, A,^C[K:treble] [DFA=c]2 [EG_Bd]2 | %45
[K:bass] [A,EA]2 [G,DG][F,CF] [D,A,D][C,G,C] [A,,E,A,][G,,D,G,] | !trill(!TG,,,8 | %47
 !>![A,,,E,,A,,]2 z2 z4 |] %48
V:3
 x4 | x8 | x8 | x8 | x8 | x8 | x8 | x8 | x8 | x8 | x8 | x8 | x8 | x8 | x8 | x8 | x8 | %17
 z4 z!p! C/C/ F2 | z4 z!p! c/c/ f/g/f/_e/ | x8 | z4 z!p! C/C/ F2 | z4 z!p! c/c/ f/g/f/g/ | x8 | %23
 x8 | x8 ||[M:2/4] x4 ||[M:4/4] x8 | x8 | x8 | x8 | x8 | x8 | x8 | x8 | x8 | x8 || x8 | x8 | x8 | %39
 x8 | x8 | x8 | x8 | x8 | x8 | x8 |[K:bass] x4[K:treble] x4 | x8 |] %48

